16x16/apps/webapp-manager.svg

<svg height="16" width="16" xmlns="http://www.w3.org/2000/svg"><path d="m3.616 0a3.608 3.608 0 0 0 -3.616 3.616v8.768c0 .951.548 1.972 1.145 2.616h13.71c.597-.644 1.145-1.665 1.145-2.616v-8.768a3.608 3.608 0 0 0 -3.616-3.616z" fill="#515e6f"/><path d="m8.2 4a2.598 2.598 0 0 0 -2.07 1.031 2 2 0 0 0 -2.887 2.18 1.399 1.399 0 0 0 .158 2.789c.222 0 .433-.066.63-.166-.013-.097-.03-.193-.03-.293 0-1.155.879-2.012 1.967-2.26.381-1.255 1.344-2.281 2.714-2.281a1 1 0 0 0 .002 0c.783 0 1.46.383 2.013.912a2.595 2.595 0 0 0 -2.497-1.912z" fill="#f4f4f7"/><path d="m8.682 6a2.045 2.083 0 0 0 -2.046 2.083 2.045 2.083 0 0 0 .001.017 1.432 1.458 0 0 0 -.205-.017 1.432 1.458 0 0 0 -1.432 1.459 1.432 1.458 0 0 0 1.432 1.458h6.34a1.227 1.25 0 0 0 1.228-1.25 1.227 1.25 0 0 0 -1.227-1.25 1.636 1.667 0 0 0 -1.637-1.667 1.636 1.667 0 0 0 -.71.167 2.045 2.083 0 0 0 -1.744-1z" fill="#f4f4f7"/><path d="m4 15h4v1h-4z" fill="#2bb563"/><path d="m1.145 15c.646.612 1.507 1 2.472 1h.383v-1z" fill="#5057eb"/><path d="m12 15v1h.383c.965 0 1.826-.388 2.472-1z" fill="#ffb73f"/><path d="m8 15h4v1h-4z" fill="#e8475b"/></svg>

<svg xmlns="http://www.w3.org/2000/svg" width="16" height="16"><path style="fill:#515e6f" d="M3.616 0A3.608 3.608 0 0 0 0 3.616v8.768c0 .951.548 1.972 1.145 2.616h13.71c.597-.644 1.145-1.665 1.145-2.616V3.616A3.608 3.608 0 0 0 12.384 0z"/><path style="fill:#f4f4f7" d="M8.2 4a2.598 2.598 0 0 0-2.07 1.031 2 2 0 0 0-2.887 2.18A1.399 1.399 0 0 0 3.401 10c.222 0 .433-.066.63-.166-.013-.097-.03-.193-.03-.293 0-1.155.879-2.012 1.967-2.26C6.349 6.026 7.312 5 8.682 5a1 1 0 0 0 .002 0c.783 0 1.46.383 2.013.912A2.595 2.595 0 0 0 8.2 4z"/><path style="fill:#f4f4f7" d="M8.682 6a2.045 2.083 0 0 0-2.046 2.083 2.045 2.083 0 0 0 .001.017 1.432 1.458 0 0 0-.205-.017A1.432 1.458 0 0 0 5 9.542 1.432 1.458 0 0 0 6.432 11h6.34A1.227 1.25 0 0 0 14 9.75a1.227 1.25 0 0 0-1.227-1.25 1.636 1.667 0 0 0-1.637-1.667 1.636 1.667 0 0 0-.71.167 2.045 2.083 0 0 0-1.744-1z"/><path style="fill:#2bb563" d="M4 15h4v1H4z"/><path style="fill:#5057eb" d="M1.145 15c.646.612 1.507 1 2.472 1H4v-1H1.145z"/><path style="fill:#ffb73f" d="M12 15v1h.383c.965 0 1.826-.388 2.472-1H12z"/><path style="fill:#e8475b" d="M8 15h4v1H8z"/></svg>
